X:1077
T:Ballroom Reel, The
R:reel
D:Jean-Michel Veillon: E Koad Nizan
Z:id:hn-reel-779
M:C|
K:D
DF (3ABc d2Ac|df~f2 ecAc|dcBA {c}BAGF|{A}GDEF {A}GFEF|
DF (3ABc d2Ac|df^ef =ecAc|dcBA {c}BAGF|GABc dAFA|
DF (3ABc d2Ac|df~f2 ecAc|dcBA {c}BAGF|{c}BA{c}AG {A}GF{A}FE|
DF (3ABc d2Ac|df^ef =ecAc|dcBA {c}BAGF|GABc d3A||
defg {b}afdf|~g2fg ecAc|defg {b}afdf|{a}ge{b}ag {a}fddc|
defg a2fd|gafd ecAc|dcBA {c}BAGF|GABc d3A|
defg {b}afdf|~g2fg ecAc|defg a2{b}af|(3gab ag {a}fdce|
defg ~a3f|g2{a}fd ecAc|dcBA {c}BAGF|GABc d2AF||


